!!!OTL: ES MARSCHIRTEN DREI REGMENTER WOHL UEBER DEN RHEIN
!!!ARE: Europa, Mitteleuropa, Deutschland, Anclam
!!!SCT: Z0203
!!!YEM: Copyright 1995, estate of Helmut Schaffrath.
**kern
*ICvox
*Ivox
*M4/4
*k[f#]
*G:
{8d
8d
=1
8d
8g
8g
8g
4g
8a
8cc
=2
4b
8a
8a
4g}
{8d
8d
=3
8d
8a
8a
8a
8a
8a
8b
8dd
=4
4cc
4b
4a}
{8dd
8cc
=5
8b
8b
8b
8b
8b
8dd
8cc
8b
=6
8a
8g
8f#
8g
4a}
{4d
=7
8b
8a
8b
8cc
8dd
8cc
8b
8a
=8
4b
4a
4g}
==
!!!AGN: Soldaten -, Jaeger - Lied
!!!ONB: ESAC (Essen Associative Code) Database: ZUCCAL
!!!AMT: simple quadruple
!!!AIN: vox
!!!EED: Helmut Schaffrath
!!!EEV: 1.0
*-
